X:75
T: BEI NAECHTLICHER WEIL
N: Z0075
O: Europa, Mitteleuropa, Deutschland
R: Sagen - Lied, Romanze, Tod
M: 3/8
L: 1/16
K: Bb
f2 | f3ed2 | g2f2f2 | f2e2d2 | c4
ff | f3ed2 | g2f2e2 | d3ed2 | c4
cc | c2d2e2 | e2d2f2 | f3ed2 | c4
ff | f2d2B2 | g2e2c2 | d4c2 | B4d2 | f4e2 | d4

